X:1
T:James Gibb editions
T:Qu'es de ti, desconsolado? - Encina
%%score [ 1 2 3 ]
L:1/8
Q:1/4=192
M:4/4
K:Bb
V:1 treble nm="Soprano" snm="S"
V:2 treble-8 nm="Tenor" snm="T"
V:3 bass nm="Bass" snm="B"
V:1
"^¿Qu'es de ti, desconsolado?""^Juan del Encina\n(1468-1529)" G4 G4 | G8 | G4 G4- | G4 A4 | %4
w: Qu'es de|ti,|des- con\-|* so-|
 (F4 G2 B2- | B2 A2 G4) | !fermata!^F8 | B4 B4 | A8 | A4 G4- | G4 ^F4 | G8 |[M:4/4] !fermata!G8 | %13
w: la\- * *||do?|Qu'es de|ti.|rey de|* Gra-|na-|da?|
 D4 =E4 | F8 | F4 G4- | G4 A4 | B8 | !fermata!A8 | A4 A4 | G8 | A4 B4- | B4 A4 | (B4 G4- | %24
w: Qu'es de|tu|tier- ra~~y|* tus|mo-|ros?|Dón- de|tie-|nes tu|* mo-|ra\- *|
 G4 ^F4) | !fermata!G8 | G4 G4 | G8 | G4 G4- | G4 A4 | (F4 G2 B2- | B2 A2 G4) | !fermata!^F8 | %33
w: |da?|Tor- na,|tór-|na- te|* buen|re\- * *||y,|
 B4 B4 | A8 | A4 G4- | G4 ^F4 | G8 | !fermata!G8 | D4 =E4 | F8 | F4 G4- | G4 A4 | B8 | %44
w: A nues-|tra|ley con\-|* sa-|gra-|da,|Por- que|si|per- dis\-|* te~el|rei-|
 !fermata!A8 | A4 A4 | G8 | A4 B4- | B4 A4 | (B4 G4- | G4 ^F4) | !fermata!G8 |] %52
w: no,|Ten- gas|el|al- ma|* co-|bra\- *||da.|
V:2
 G4 G4 | B8 | c4 e4- | e4 c4 | (d4 B3 c | d2 d4 c2) | !fermata!d8 | d4 d4 | d4 c4- | c4 B4 | A8 | %11
w: Qu'es de|ti,|des- con\-|* so-|la\- * *||do?|Qu'es de|ti. rey|* de|Gra-|
 G8 |[M:4/4][K:treble-8] !fermata!G8 | B4 c4 | A4 d4- | d4 B4 | e8 | d8 | !fermata!c8 | c4 A4 | %20
w: na-|da?|Qu'es de|tu tier\-|* ra~~y|tus|mo-|ros?|Dón- de|
 B8 | c4 d4 | e8 | (d4 c2 B2 | A8) | !fermata!G8 | G4 G4 | B8 | c4 e4- | e4 c4 | (d4 B3 c | %31
w: tie-|nes tu|mo-|ra\- * *||da?|Tor- na,|tór-|na- te|* buen|re\- * *|
 d2 d4 c2) | !fermata!d8 | d4 d4 | d4 c4- | c4 B4 | A8 | G8 | !fermata!G8 | B4 c4 | A4 d4- | %41
w: |y,|A nues-|tra ley|* con-|sa-|gra-|da,|Por- que|si per\-|
 d4 B4 | e8 | d8 | !fermata!c8 | c4 A4 | B8 | c4 d4 | e8 | (d4 c2 B2 | A8) | !fermata!G8 |] %52
w: * dis-|te~el|rei-|no,|Ten- gas|el|al- ma|co-|bra\- * *||da.|
V:3
 G,4 G,4 | E,8 | C,8 | E,4 F,4 | (D,4 E,2 G,2- | G,F, D,2 E,4) | !fermata!D,8 | G,4 G,4 | %8
w: Qu'es de|ti,|des-|con- so-|la\- * *||do?|Qu'es de|
 D,4 F,4- | F,4 G,4 | D,8 | G,,8 |[M:4/4] !fermata!G,,8 | G,4 C,4 | D,8 | D,4 E,4 | B,,8 | B,,8 | %18
w: ti. rey|* de|Gra-|na-|da?|Qu'es de|tu|tier- ra~~y|tus|mo-|
 !fermata!F,8 | F,4 F,4 | (E,4 G,4) | F,4 B,,4 | C,8 | (B,,4 C,4 | D,8) | !fermata!G,,8 | G,4 G,4 | %27
w: ros?|Dón- de|tie\- *|nes tu|mo-|ra\- *||da?|Tor- na,|
 E,8 | C,8 | E,4 F,4 | (D,4 E,2 G,2- | G,F, D,2 E,4) | !fermata!D,8 | G,4 G,4 | D,4 F,4- | %35
w: tór-|na-|te buen|re\- * *||y,|A nues-|tra ley|
 F,4 G,4 | D,8 | G,,8 | !fermata!G,,8 | G,4 C,4 | D,8 | D,4 E,4 | C,8 | F,8 | !fermata!F,8 | %45
w: * con-|sa-|gra-|da,|Por- que|si|per- dis-|te~el|rei-|no,|
 F,4 F,4 | (E,4 G,4) | F,4 B,,4 | C,8 | (B,,4 C,4 | D,8) | !fermata!G,,8 |] %52
w: Ten- gas|el *|al- ma|co-|bra\- *||da.|

